T: Sea Of Dreams, The
M: 4/4
L: 1/8
K: Emin
|:Jf6-f{gf}e|Jg6-f e|Je6{fe}de|Jf6z3/2e/2|d6-dB|Je6-eD|1z8|z8:|2z6FG|
{AB}A6-AB|{AB}A6-AF|A6{B}AF|E8-|E8|-E2{DB}z6|z8:|
